X: 082
T: Miss Rollo's Strathspey
C: by John Pringle
B: John Pringle "Collection of Reels Strathspeys & Jigs", 1801 p.8#2
Z: 2011 John Chambers <jc:trillian.mit.edu>
R: strathspey
M: C
L: 1/8
K: G
V: 1
D | G<GGF EDCB, | A,A/B/ c/B/A/G/ FDDF | G>B,CE D<GF<A | G<BDF G2G :|
B/c/ | d>d (e/d/c/B/) cAAc | BGEA FD DB/c/ | d>d (e/d/c/B/) c<eA<c | B<dE<A DFG2 |
d>d e/d/c/B/ c>AB>G EA (c/B/A/G/) FDDG | E<CE<A F<Dd>c | B<GD<F G2G |]
V: 2 clef=bass middle=d
z | g2G2 c2G2 | A2c2  d2D2 | g2c2  d2f2 | g2d2 G2G :|
z | g2b2 a2d2 | g3^c  d2D2 | g2b2  c2d2 | g2c2 d2G2 |
    g2b2 a2g2 | c2^c2 d2D2 | c2^c2 d2f2 | g2d2 G2G |]

%%sep 2 1 500

